openmetadata-ui/src/main/resources/ui/src/assets/svg/logo.svg

<svg width="226" height="90" viewBox="0 0 226 90" fill="none" xmlns="http://www.w3.org/2000/svg">
<path d="M0.00117497 18.9H0V71.4H0.00117498C0.162373 81.6862 16.8894 90 37.5 90C58.1106 90 74.8376 81.6862 74.9988 71.4H75V18.9H74.9988C74.8376 29.1862 58.1106 37.5 37.5 37.5C16.8894 37.5 0.162373 29.1862 0.00117497 18.9Z" fill="url(#paint0_linear)"/>
<path fill-rule="evenodd" clip-rule="evenodd" d="M37.5 37.5C58.2107 37.5 75 29.1053 75 18.75C75 8.39466 58.2107 0 37.5 0C16.7893 0 0 8.39466 0 18.75C0 29.1053 16.7893 37.5 37.5 37.5ZM37.65 28.35C48.0053 28.35 56.4 24.1527 56.4 18.975C56.4 13.7973 48.0053 9.6 37.65 9.6C27.2947 9.6 18.9 13.7973 18.9 18.975C18.9 24.1527 27.2947 28.35 37.65 28.35Z" fill="#8D6AF1"/>
<path d="M25.5 63.5585V77.1768C25.5 77.9446 24.6705 78.426 24.0039 78.045L13.4039 71.9879C13.0923 71.8098 12.9 71.4785 12.9 71.1196V41.6773C12.9 40.8976 13.7527 40.4179 14.4191 40.8226L36.8371 54.4385C37.1528 54.6302 37.5485 54.6323 37.8662 54.444L60.8901 40.7951C61.5567 40.3999 62.4 40.8804 62.4 41.6553V71.6949C62.4 72.0669 62.1936 72.4081 61.864 72.5807L51.264 78.1331C50.5982 78.4819 49.8 77.9989 49.8 77.2473V63.5154C49.8 62.7493 48.9739 62.2678 48.3073 62.6453L37.8552 68.5639C37.5428 68.7408 37.1596 68.7367 36.8511 68.5532L27.0113 62.6991C26.3447 62.3025 25.5 62.7829 25.5 63.5585Z" fill="white"/>
<path d="M96.004 38.196C94.1747 38.196 92.4947 37.7667 90.964 36.908C89.4333 36.0493 88.22 34.864 87.324 33.352C86.428 31.8213 85.98 30.0947 85.98 28.172C85.98 26.268 86.428 24.56 87.324 23.048C88.22 21.5173 89.4333 20.3227 90.964 19.464C92.4947 18.6053 94.1747 18.176 96.004 18.176C97.852 18.176 99.532 18.6053 101.044 19.464C102.575 20.3227 103.779 21.5173 104.656 23.048C105.552 24.56 106 26.268 106 28.172C106 30.0947 105.552 31.8213 104.656 33.352C103.779 34.864 102.575 36.0493 101.044 36.908C99.5133 37.7667 97.8333 38.196 96.004 38.196ZM96.004 34.696C97.18 34.696 98.216 34.4347 99.112 33.912C100.008 33.3707 100.708 32.6053 101.212 31.616C101.716 30.6267 101.968 29.4787 101.968 28.172C101.968 26.8653 101.716 25.7267 101.212 24.756C100.708 23.7667 100.008 23.0107 99.112 22.488C98.216 21.9653 97.18 21.704 96.004 21.704C94.828 21.704 93.7827 21.9653 92.868 22.488C91.972 23.0107 91.272 23.7667 90.768 24.756C90.264 25.7267 90.012 26.8653 90.012 28.172C90.012 29.4787 90.264 30.6267 90.768 31.616C91.272 32.6053 91.972 33.3707 92.868 33.912C93.7827 34.4347 94.828 34.696 96.004 34.696ZM112.836 24.728C113.34 24.0187 114.031 23.4307 114.908 22.964C115.804 22.4787 116.822 22.236 117.96 22.236C119.286 22.236 120.48 22.5627 121.544 23.216C122.627 23.8693 123.476 24.8027 124.092 26.016C124.727 27.2107 125.044 28.6013 125.044 30.188C125.044 31.7747 124.727 33.184 124.092 34.416C123.476 35.6293 122.627 36.572 121.544 37.244C120.48 37.916 119.286 38.252 117.96 38.252C116.822 38.252 115.814 38.0187 114.936 37.552C114.078 37.0853 113.378 36.4973 112.836 35.788V45.392H108.916V22.488H112.836V24.728ZM121.04 30.188C121.04 29.2547 120.844 28.452 120.452 27.78C120.079 27.0893 119.575 26.5667 118.94 26.212C118.324 25.8573 117.652 25.68 116.924 25.68C116.215 25.68 115.543 25.8667 114.908 26.24C114.292 26.5947 113.788 27.1173 113.396 27.808C113.023 28.4987 112.836 29.3107 112.836 30.244C112.836 31.1773 113.023 31.9893 113.396 32.68C113.788 33.3707 114.292 33.9027 114.908 34.276C115.543 34.6307 116.215 34.808 116.924 34.808C117.652 34.808 118.324 34.6213 118.94 34.248C119.575 33.8747 120.079 33.3427 120.452 32.652C120.844 31.9613 121.04 31.14 121.04 30.188ZM142.313 29.908C142.313 30.468 142.276 30.972 142.201 31.42H130.861C130.954 32.54 131.346 33.4173 132.037 34.052C132.728 34.6867 133.577 35.004 134.585 35.004C136.041 35.004 137.077 34.3787 137.693 33.128H141.921C141.473 34.6213 140.614 35.8533 139.345 36.824C138.076 37.776 136.517 38.252 134.669 38.252C133.176 38.252 131.832 37.9253 130.637 37.272C129.461 36.6 128.537 35.6573 127.865 34.444C127.212 33.2307 126.885 31.8307 126.885 30.244C126.885 28.6387 127.212 27.2293 127.865 26.016C128.518 24.8027 129.433 23.8693 130.609 23.216C131.785 22.5627 133.138 22.236 134.669 22.236C136.144 22.236 137.46 22.5533 138.617 23.188C139.793 23.8227 140.698 24.728 141.333 25.904C141.986 27.0613 142.313 28.396 142.313 29.908ZM138.253 28.788C138.234 27.78 137.87 26.9773 137.161 26.38C136.452 25.764 135.584 25.456 134.557 25.456C133.586 25.456 132.765 25.7547 132.093 26.352C131.44 26.9307 131.038 27.7427 130.889 28.788H138.253ZM153.77 22.264C155.618 22.264 157.112 22.852 158.25 24.028C159.389 25.1853 159.958 26.8093 159.958 28.9V38H156.038V29.432C156.038 28.2 155.73 27.2573 155.114 26.604C154.498 25.932 153.658 25.596 152.594 25.596C151.512 25.596 150.653 25.932 150.018 26.604C149.402 27.2573 149.094 28.2 149.094 29.432V38H145.174V22.488H149.094V24.42C149.617 23.748 150.28 23.2253 151.082 22.852C151.904 22.46 152.8 22.264 153.77 22.264Z" fill="#8D6AF1"/>
<path d="M108.24 54.456V74H104.32V61.288L99.084 74H96.116L90.852 61.288V74H86.932V54.456H91.384L97.6 68.988L103.816 54.456H108.24ZM126.536 65.908C126.536 66.468 126.498 66.972 126.424 67.42H115.084C115.177 68.54 115.569 69.4173 116.26 70.052C116.95 70.6867 117.8 71.004 118.808 71.004C120.264 71.004 121.3 70.3787 121.916 69.128H126.144C125.696 70.6213 124.837 71.8533 123.568 72.824C122.298 73.776 120.74 74.252 118.892 74.252C117.398 74.252 116.054 73.9253 114.86 73.272C113.684 72.6 112.76 71.6573 112.088 70.444C111.434 69.2307 111.108 67.8307 111.108 66.244C111.108 64.6387 111.434 63.2293 112.088 62.016C112.741 60.8027 113.656 59.8693 114.832 59.216C116.008 58.5627 117.361 58.236 118.892 58.236C120.366 58.236 121.682 58.5533 122.84 59.188C124.016 59.8227 124.921 60.728 125.556 61.904C126.209 63.0613 126.536 64.396 126.536 65.908ZM122.476 64.788C122.457 63.78 122.093 62.9773 121.384 62.38C120.674 61.764 119.806 61.456 118.78 61.456C117.809 61.456 116.988 61.7547 116.316 62.352C115.662 62.9307 115.261 63.7427 115.112 64.788H122.476ZM133.961 61.708V69.212C133.961 69.7347 134.082 70.1173 134.325 70.36C134.586 70.584 135.016 70.696 135.613 70.696H137.433V74H134.969C131.665 74 130.013 72.3947 130.013 69.184V61.708H128.165V58.488H130.013V54.652H133.961V58.488H137.433V61.708H133.961ZM139.244 66.188C139.244 64.62 139.552 63.2293 140.168 62.016C140.803 60.8027 141.652 59.8693 142.716 59.216C143.799 58.5627 145.003 58.236 146.328 58.236C147.486 58.236 148.494 58.4693 149.352 58.936C150.23 59.4027 150.93 59.9907 151.452 60.7V58.488H155.4V74H151.452V71.732C150.948 72.46 150.248 73.0667 149.352 73.552C148.475 74.0187 147.458 74.252 146.3 74.252C144.994 74.252 143.799 73.916 142.716 73.244C141.652 72.572 140.803 71.6293 140.168 70.416C139.552 69.184 139.244 67.7747 139.244 66.188ZM151.452 66.244C151.452 65.292 151.266 64.48 150.892 63.808C150.519 63.1173 150.015 62.5947 149.38 62.24C148.746 61.8667 148.064 61.68 147.336 61.68C146.608 61.68 145.936 61.8573 145.32 62.212C144.704 62.5667 144.2 63.0893 143.808 63.78C143.435 64.452 143.248 65.2547 143.248 66.188C143.248 67.1213 143.435 67.9427 143.808 68.652C144.2 69.3427 144.704 69.8747 145.32 70.248C145.955 70.6213 146.627 70.808 147.336 70.808C148.064 70.808 148.746 70.6307 149.38 70.276C150.015 69.9027 150.519 69.38 150.892 68.708C151.266 68.0173 151.452 67.196 151.452 66.244ZM158.221 66.188C158.221 64.62 158.529 63.2293 159.145 62.016C159.78 60.8027 160.638 59.8693 161.721 59.216C162.804 58.5627 164.008 58.236 165.333 58.236C166.341 58.236 167.302 58.46 168.217 58.908C169.132 59.3373 169.86 59.916 170.401 60.644V53.28H174.377V74H170.401V71.704C169.916 72.4693 169.234 73.0853 168.357 73.552C167.48 74.0187 166.462 74.252 165.305 74.252C163.998 74.252 162.804 73.916 161.721 73.244C160.638 72.572 159.78 71.6293 159.145 70.416C158.529 69.184 158.221 67.7747 158.221 66.188ZM170.429 66.244C170.429 65.292 170.242 64.48 169.869 63.808C169.496 63.1173 168.992 62.5947 168.357 62.24C167.722 61.8667 167.041 61.68 166.313 61.68C165.585 61.68 164.913 61.8573 164.297 62.212C163.681 62.5667 163.177 63.0893 162.785 63.78C162.412 64.452 162.225 65.2547 162.225 66.188C162.225 67.1213 162.412 67.9427 162.785 68.652C163.177 69.3427 163.681 69.8747 164.297 70.248C164.932 70.6213 165.604 70.808 166.313 70.808C167.041 70.808 167.722 70.6307 168.357 70.276C168.992 69.9027 169.496 69.38 169.869 68.708C170.242 68.0173 170.429 67.196 170.429 66.244ZM177.197 66.188C177.197 64.62 177.505 63.2293 178.121 62.016C178.756 60.8027 179.605 59.8693 180.669 59.216C181.752 58.5627 182.956 58.236 184.281 58.236C185.439 58.236 186.447 58.4693 187.305 58.936C188.183 59.4027 188.883 59.9907 189.405 60.7V58.488H193.353V74H189.405V71.732C188.901 72.46 188.201 73.0667 187.305 73.552C186.428 74.0187 185.411 74.252 184.253 74.252C182.947 74.252 181.752 73.916 180.669 73.244C179.605 72.572 178.756 71.6293 178.121 70.416C177.505 69.184 177.197 67.7747 177.197 66.188ZM189.405 66.244C189.405 65.292 189.219 64.48 188.845 63.808C188.472 63.1173 187.968 62.5947 187.333 62.24C186.699 61.8667 186.017 61.68 185.289 61.68C184.561 61.68 183.889 61.8573 183.273 62.212C182.657 62.5667 182.153 63.0893 181.761 63.78C181.388 64.452 181.201 65.2547 181.201 66.188C181.201 67.1213 181.388 67.9427 181.761 68.652C182.153 69.3427 182.657 69.8747 183.273 70.248C183.908 70.6213 184.58 70.808 185.289 70.808C186.017 70.808 186.699 70.6307 187.333 70.276C187.968 69.9027 188.472 69.38 188.845 68.708C189.219 68.0173 189.405 67.196 189.405 66.244ZM201.746 61.708V69.212C201.746 69.7347 201.867 70.1173 202.11 70.36C202.371 70.584 202.801 70.696 203.398 70.696H205.218V74H202.754C199.45 74 197.798 72.3947 197.798 69.184V61.708H195.95V58.488H197.798V54.652H201.746V58.488H205.218V61.708H201.746ZM207.029 66.188C207.029 64.62 207.337 63.2293 207.953 62.016C208.588 60.8027 209.437 59.8693 210.501 59.216C211.584 58.5627 212.788 58.236 214.113 58.236C215.271 58.236 216.279 58.4693 217.137 58.936C218.015 59.4027 218.715 59.9907 219.237 60.7V58.488H223.185V74H219.237V71.732C218.733 72.46 218.033 73.0667 217.137 73.552C216.26 74.0187 215.243 74.252 214.085 74.252C212.779 74.252 211.584 73.916 210.501 73.244C209.437 72.572 208.588 71.6293 207.953 70.416C207.337 69.184 207.029 67.7747 207.029 66.188ZM219.237 66.244C219.237 65.292 219.051 64.48 218.677 63.808C218.304 63.1173 217.8 62.5947 217.165 62.24C216.531 61.8667 215.849 61.68 215.121 61.68C214.393 61.68 213.721 61.8573 213.105 62.212C212.489 62.5667 211.985 63.0893 211.593 63.78C211.22 64.452 211.033 65.2547 211.033 66.188C211.033 67.1213 211.22 67.9427 211.593 68.652C211.985 69.3427 212.489 69.8747 213.105 70.248C213.74 70.6213 214.412 70.808 215.121 70.808C215.849 70.808 216.531 70.6307 217.165 70.276C217.8 69.9027 218.304 69.38 218.677 68.708C219.051 68.0173 219.237 67.196 219.237 66.244Z" fill="#7147E8"/>
<defs>
<linearGradient id="paint0_linear" x1="37.5" y1="27" x2="37.5" y2="90" gradientUnits="userSpaceOnUse">
<stop stop-color="#35198E"/>
<stop offset="1" stop-color="#8D6AF1"/>
</linearGradient>
</defs>
</svg>

<svg xmlns="http://www.w3.org/2000/svg" width="226" height="90" fill="none"><path fill="url(#a)" d="M.001 18.9H0v52.5h.001C.162 81.686 16.89 90 37.5 90c20.61 0 37.338-8.314 37.499-18.6H75V18.9h-.001C74.838 29.186 58.11 37.5 37.5 37.5 16.89 37.5.162 29.186.001 18.9Z"/><path fill="#8D6AF1" fill-rule="evenodd" d="M37.5 37.5c20.71 0 37.5-8.395 37.5-18.75S58.21 0 37.5 0 0 8.395 0 18.75 16.79 37.5 37.5 37.5Zm.15-9.15c10.355 0 18.75-4.197 18.75-9.375S48.005 9.6 37.65 9.6 18.9 13.797 18.9 18.975s8.395 9.375 18.75 9.375Z" clip-rule="evenodd"/><path fill="#fff" d="M25.5 63.559v13.618a1 1 0 0 1-1.496.868l-10.6-6.057a1 1 0 0 1-.504-.868V41.677a1 1 0 0 1 1.52-.854l22.417 13.615a1 1 0 0 0 1.03.006L60.89 40.795a1 1 0 0 1 1.51.86v30.04a1 1 0 0 1-.536.886l-10.6 5.552a1 1 0 0 1-1.464-.886V63.515a1 1 0 0 0-1.493-.87l-10.452 5.919a1 1 0 0 1-1.004-.01l-9.84-5.855a1 1 0 0 0-1.511.86Z"/><path fill="#8D6AF1" d="M96.004 38.196c-1.83 0-3.51-.43-5.04-1.288a9.647 9.647 0 0 1-3.64-3.556c-.896-1.53-1.344-3.257-1.344-5.18 0-1.904.448-3.612 1.344-5.124a9.585 9.585 0 0 1 3.64-3.584c1.53-.859 3.21-1.288 5.04-1.288 1.848 0 3.528.43 5.04 1.288a9.38 9.38 0 0 1 3.612 3.584c.896 1.512 1.344 3.22 1.344 5.124 0 1.923-.448 3.65-1.344 5.18a9.438 9.438 0 0 1-3.612 3.556c-1.53.859-3.21 1.288-5.04 1.288Zm0-3.5c1.176 0 2.212-.261 3.108-.784.896-.541 1.596-1.307 2.1-2.296.504-.99.756-2.137.756-3.444s-.252-2.445-.756-3.416c-.504-.99-1.204-1.745-2.1-2.268-.896-.523-1.932-.784-3.108-.784-1.176 0-2.221.261-3.136.784-.896.523-1.596 1.279-2.1 2.268-.504.97-.756 2.11-.756 3.416 0 1.307.252 2.455.756 3.444.504.99 1.204 1.755 2.1 2.296.915.523 1.96.784 3.136.784Zm16.832-9.968c.504-.71 1.195-1.297 2.072-1.764.896-.485 1.914-.728 3.052-.728 1.326 0 2.52.327 3.584.98 1.083.653 1.932 1.587 2.548 2.8.635 1.195.952 2.585.952 4.172 0 1.587-.317 2.996-.952 4.228-.616 1.213-1.465 2.156-2.548 2.828-1.064.672-2.258 1.008-3.584 1.008-1.138 0-2.146-.233-3.024-.7-.858-.467-1.558-1.055-2.1-1.764v9.604h-3.92V22.488h3.92v2.24Zm8.204 5.46c0-.933-.196-1.736-.588-2.408-.373-.69-.877-1.213-1.512-1.568a3.97 3.97 0 0 0-2.016-.532c-.709 0-1.381.187-2.016.56-.616.355-1.12.877-1.512 1.568-.373.69-.56 1.503-.56 2.436s.187 1.745.56 2.436c.392.69.896 1.223 1.512 1.596a4.072 4.072 0 0 0 2.016.532c.728 0 1.4-.187 2.016-.56a4.02 4.02 0 0 0 1.512-1.596c.392-.69.588-1.512.588-2.464Zm21.273-.28c0 .56-.037 1.064-.112 1.512h-11.34c.093 1.12.485 1.997 1.176 2.632s1.54.952 2.548.952c1.456 0 2.492-.625 3.108-1.876h4.228c-.448 1.493-1.307 2.725-2.576 3.696-1.269.952-2.828 1.428-4.676 1.428-1.493 0-2.837-.327-4.032-.98a7.213 7.213 0 0 1-2.772-2.828c-.653-1.213-.98-2.613-.98-4.2 0-1.605.327-3.015.98-4.228a6.836 6.836 0 0 1 2.744-2.8c1.176-.653 2.529-.98 4.06-.98 1.475 0 2.791.317 3.948.952a6.57 6.57 0 0 1 2.716 2.716c.653 1.157.98 2.492.98 4.004Zm-4.06-1.12c-.019-1.008-.383-1.81-1.092-2.408-.709-.616-1.577-.924-2.604-.924-.971 0-1.792.299-2.464.896-.653.579-1.055 1.39-1.204 2.436h7.364Zm15.517-6.524c1.848 0 3.342.588 4.48 1.764 1.139 1.157 1.708 2.781 1.708 4.872V38h-3.92v-8.568c0-1.232-.308-2.175-.924-2.828-.616-.672-1.456-1.008-2.52-1.008-1.082 0-1.941.336-2.576 1.008-.616.653-.924 1.596-.924 2.828V38h-3.92V22.488h3.92v1.932a5.322 5.322 0 0 1 1.988-1.568 6.164 6.164 0 0 1 2.688-.588Z"/><path fill="#7147E8" d="M108.24 54.456V74h-3.92V61.288L99.084 74h-2.968l-5.264-12.712V74h-3.92V54.456h4.452L97.6 68.988l6.216-14.532h4.424Zm18.296 11.452c0 .56-.038 1.064-.112 1.512h-11.34c.093 1.12.485 1.997 1.176 2.632.69.635 1.54.952 2.548.952 1.456 0 2.492-.625 3.108-1.876h4.228c-.448 1.493-1.307 2.725-2.576 3.696-1.27.952-2.828 1.428-4.676 1.428-1.494 0-2.838-.327-4.032-.98a7.213 7.213 0 0 1-2.772-2.828c-.654-1.213-.98-2.613-.98-4.2 0-1.605.326-3.015.98-4.228a6.836 6.836 0 0 1 2.744-2.8c1.176-.653 2.529-.98 4.06-.98 1.474 0 2.79.317 3.948.952a6.57 6.57 0 0 1 2.716 2.716c.653 1.157.98 2.492.98 4.004Zm-4.06-1.12c-.019-1.008-.383-1.81-1.092-2.408-.71-.616-1.578-.924-2.604-.924-.971 0-1.792.299-2.464.896-.654.579-1.055 1.39-1.204 2.436h7.364Zm11.485-3.08v7.504c0 .523.121.905.364 1.148.261.224.691.336 1.288.336h1.82V74h-2.464c-3.304 0-4.956-1.605-4.956-4.816v-7.476h-1.848v-3.22h1.848v-3.836h3.948v3.836h3.472v3.22h-3.472Zm5.283 4.48c0-1.568.308-2.959.924-4.172.635-1.213 1.484-2.147 2.548-2.8 1.083-.653 2.287-.98 3.612-.98 1.158 0 2.166.233 3.024.7.878.467 1.578 1.055 2.1 1.764v-2.212h3.948V74h-3.948v-2.268c-.504.728-1.204 1.335-2.1 1.82-.877.467-1.894.7-3.052.7a6.665 6.665 0 0 1-3.584-1.008c-1.064-.672-1.913-1.615-2.548-2.828-.616-1.232-.924-2.641-.924-4.228Zm12.208.056c0-.952-.186-1.764-.56-2.436-.373-.69-.877-1.213-1.512-1.568a3.962 3.962 0 0 0-2.044-.56c-.728 0-1.4.177-2.016.532-.616.355-1.12.877-1.512 1.568-.373.672-.56 1.475-.56 2.408 0 .933.187 1.755.56 2.464.392.69.896 1.223 1.512 1.596.635.373 1.307.56 2.016.56.728 0 1.41-.177 2.044-.532a4.068 4.068 0 0 0 1.512-1.568c.374-.69.56-1.512.56-2.464Zm6.769-.056c0-1.568.308-2.959.924-4.172.635-1.213 1.493-2.147 2.576-2.8s2.287-.98 3.612-.98c1.008 0 1.969.224 2.884.672.915.43 1.643 1.008 2.184 1.736V53.28h3.976V74h-3.976v-2.296c-.485.765-1.167 1.381-2.044 1.848-.877.467-1.895.7-3.052.7a6.662 6.662 0 0 1-3.584-1.008c-1.083-.672-1.941-1.615-2.576-2.828-.616-1.232-.924-2.641-.924-4.228Zm12.208.056c0-.952-.187-1.764-.56-2.436-.373-.69-.877-1.213-1.512-1.568a3.965 3.965 0 0 0-2.044-.56c-.728 0-1.4.177-2.016.532-.616.355-1.12.877-1.512 1.568-.373.672-.56 1.475-.56 2.408 0 .933.187 1.755.56 2.464.392.69.896 1.223 1.512 1.596.635.373 1.307.56 2.016.56.728 0 1.409-.177 2.044-.532a4.068 4.068 0 0 0 1.512-1.568c.373-.69.56-1.512.56-2.464Zm6.768-.056c0-1.568.308-2.959.924-4.172.635-1.213 1.484-2.147 2.548-2.8 1.083-.653 2.287-.98 3.612-.98 1.158 0 2.166.233 3.024.7.878.467 1.578 1.055 2.1 1.764v-2.212h3.948V74h-3.948v-2.268c-.504.728-1.204 1.335-2.1 1.82-.877.467-1.894.7-3.052.7a6.665 6.665 0 0 1-3.584-1.008c-1.064-.672-1.913-1.615-2.548-2.828-.616-1.232-.924-2.641-.924-4.228Zm12.208.056c0-.952-.186-1.764-.56-2.436-.373-.69-.877-1.213-1.512-1.568a3.962 3.962 0 0 0-2.044-.56c-.728 0-1.4.177-2.016.532-.616.355-1.12.877-1.512 1.568-.373.672-.56 1.475-.56 2.408 0 .933.187 1.755.56 2.464.392.69.896 1.223 1.512 1.596.635.373 1.307.56 2.016.56.728 0 1.41-.177 2.044-.532a4.068 4.068 0 0 0 1.512-1.568c.374-.69.56-1.512.56-2.464Zm12.341-4.536v7.504c0 .523.121.905.364 1.148.261.224.691.336 1.288.336h1.82V74h-2.464c-3.304 0-4.956-1.605-4.956-4.816v-7.476h-1.848v-3.22h1.848v-3.836h3.948v3.836h3.472v3.22h-3.472Zm5.283 4.48c0-1.568.308-2.959.924-4.172.635-1.213 1.484-2.147 2.548-2.8 1.083-.653 2.287-.98 3.612-.98 1.158 0 2.166.233 3.024.7.878.467 1.578 1.055 2.1 1.764v-2.212h3.948V74h-3.948v-2.268c-.504.728-1.204 1.335-2.1 1.82-.877.467-1.894.7-3.052.7a6.665 6.665 0 0 1-3.584-1.008c-1.064-.672-1.913-1.615-2.548-2.828-.616-1.232-.924-2.641-.924-4.228Zm12.208.056c0-.952-.186-1.764-.56-2.436-.373-.69-.877-1.213-1.512-1.568a3.962 3.962 0 0 0-2.044-.56c-.728 0-1.4.177-2.016.532-.616.355-1.12.877-1.512 1.568-.373.672-.56 1.475-.56 2.408 0 .933.187 1.755.56 2.464.392.69.896 1.223 1.512 1.596.635.373 1.307.56 2.016.56.728 0 1.41-.177 2.044-.532a4.068 4.068 0 0 0 1.512-1.568c.374-.69.56-1.512.56-2.464Z"/><defs><linearGradient id="a" x1="37.5" x2="37.5" y1="27" y2="90" gradientUnits="userSpaceOnUse"><stop stop-color="#35198E"/><stop offset="1" stop-color="#8D6AF1"/></linearGradient></defs></svg>
